X:14
T:14.  Good News from Home
C:c 1981 Harry Bolick  
R:Breakdown
O:United States
A:Brooklyn, New York
M:4/4
L:1/8
Q:250
K:D
A |: "D"  dA B/2A/2F ED/2E/2 FA |  "A" z a2ge2f2 | "D"d(d d)f "G"g2b2 | "D"(a6a) A |
"D"  dA B/2A/2F ED/2E/2 FA | "A" z a2ge2f2 |"D" d(d d)f g2 "G"fe |"D" d8 :|
"D"FA A/2G/2F "G" B2 B/2A/2G |"D"  z(d d)c BA FD | F(A A) A BA FD |"A" E8 | 
"D" FA A/2G/2F "G" B2 B/2A/2G | "D" z(d d)c BA FD | F(A A)B AF "A" EF/2E/2  |"D" D8 :|
